X: 10732
T: THA MI MO CHADAL.--"I AM ASLEEP."
T: ANCIENT SET.
O: Gaelic air.
Q: "Slow."
%R: air, waltz
B: W. Hamilton "Universal Tune-Book" Vol. 1 Glasgow 1844 p.73 #2
S: http://imslp.org/wiki/Hamilton's_Universal_Tune-Book_(Various)
Z: 2016 John Chambers <jc:trillian.mit.edu>
N: All 3 ending measures are just a half-note F without dots; not fixed.
M: 3/4
L: 1/8
K: F
% - - - - - - - - - - - - - - - - - - - - - - - - -
|:\
C/D/F F4 | F4 A2 | (GA)(BA)(GF) | D4 C2 |\
D>E F4 | A>Bc>e Hf2 | A3 B G2 |[1 F4 :|[2 F4 |]\
c>d |\
_e3 gfe | d2 _e2 f2 | c3 dfg | f2 d2 c2 |
_edegfe | d3 =e Hf2 | {d}c2 (BA)(GF) | {E}F2 D2 C2 |\
f2 e2 d2 | c2 B2 A2 | G3 FAG | F3 G/A/ C2 |\
D>E F4 | (Afed)(cB) | A3 B G2 | F4 |]
% - - - - - - - - - - - - - - - - - - - - - - - - -

%%sep 1 1 500
%%sep 1 1 500

